X: 1
T: Gerald Thomas' Burnt Potato
M: 4/4
L: 1/8
R: reel
K: Bmin
|: dc | BFFF dFFF | EFED B,2 A,B, | DEFE DEFA| ecAc BF F2 |
   dcBA BF F2 | AFED B,2 A,B, | DEFE DEFA | ecAc B2 :|
|: Bc | defe dcBd | cded cBAc | d2 fd cdec | AB (3cBA B2 dc|
  BF F2 dF F2 | EFED B,2 A,B, | DEFE DEFA | ecAc B2 :|
